X:1
T:Frolic of the Bears
T:FROLIC  OF  THE  BEARS
T:TREEMONISHA
T:by SCOTT  JOPLIN
T:from the Opera
T:Public Domain
T:Public Domain
T:Public Domain
T:Public Domain
T:Public Domain
T:Public Domain
T:Public Domain
T:Public Domain
C:Scott Joplin
Z:Public Domain
%%score { ( 1 3 ) | ( 2 4 ) }
L:1/8
Q:1/4=88
M:3/4
K:G
V:1 treble nm="Piano" snm="Pno."
V:3 treble 
V:2 bass 
V:4 bass 
V:1
"^Revised Edition"!mf!"^Very Slow Waltz Tempo M.M." (B,^A,B,A,B,A,) | (B,^A,B,A,B,A,) | %2
"_cresc." (B,C^CD^DE) | (^EFG^GA^A) |!f! (B"_dim."_BA_AGF) | (=FE_ED_DC) |!mf! (B,^A,B,A, B,2) | %7
[Q:1/4=80]"_molto rit." B2 B2 !fermata!B2 ||!mp!{/c} (BE-) (EFGB) | (A3 B c2) |{/c} (BE-) (EFGB) | %11
 (A3 B c2) |"_cresc."{/c} (B [EGe]2 [FAf] [GBg]2) |({/c} B [F^df]2 [Geg] [Afa]2) | %14
{/c} B[Bgb]- [Bgb][Geg][Ee][Ff] |!f! [^DB^d]2{/^A} !>!B2 !>!!fermata!B,2 | %16
[Q:1/4=88]"^a tempo"!mp!{/c} (BE-) (EFGB) | (A3 B c2) |{/c} (BE-) (EFGB) | (A3 B c2) | %20
"_cresc."{/c} (B [EGe]2 [FAf] [GBg]2) |({/c} B [F^df]2 [Geg] [Afa]2) | %22
{/c} B[Bgb]- [Bgb][cc'][Aa][Ff] |!f! [_E_e]2 .E.D.D.D | ^C =E2 G _B2 | (_BABA B2) | %26
 !^![G_B^cg]4 !^![GBcg]2 | !^![G_Be]2 ^C2 C2 | D =F2 _A =B2 | (B^ABA B2) | %30
 !^![_ABd_a]4 !^![ABda]2 | !^![_AB=f]2 D2 D2 |!p! (de)(ed) d2 | (de)(ed) d2 | (e=f)(fe) e2 | %35
 (e=f)(fe) e2 |!mf! (b a2 g c2) | (b a2 g B2) | %38
[Q:1/4=80]"_poco rit." !tenuto![GBd]2 !tenuto![G^A^c]2 !tenuto![G=A=c]2 | !tenuto![FAc]2 D2 D2 | %40
!f![Q:1/4=88]"^a  tempo" ^C E2 G _B2 | (_BABA B2) | !^![G_B^cg]4 !^![GBcg]2 | !^![G_Be]2 ^C2 C2 | %44
 D =F2 _A =B2 | (B^ABA B2) | !^![_ABd_a]4 !^![ABda]2 | !^![_AB=f]2 [D=FB]2 [DFB]2 | %48
[K:bass] (=F,E,F,E,F,E,) | (D,^C,D,C,D,E, | =F,) z[K:treble] !^!=F z !^!_A z | %51
 !^![d=fb] z !^![dfb] z !^![^ce_b]2 |[K:bass] (G,^F,G,F,G,F,) | (E,^D,E,D,E,F, | %54
 G,) z[K:treble] !^!G z !^!_B z | !^![eg^c'] z !^![egc'] z !^![^d^f=c']2 | %56
[K:bass] z [E,C]2 [D,B,] [C,A,]2 | z [C,A,]2 [D,B,] [E,C]2 | z [F,CE]2 [F,CE] [F,CD]2 | %59
 z [G,B,E]2 [G,B,E] [G,B,D]2 |[K:treble] e'e' e'2 _e'2 | [fa_e']2 [fad']4 | d'd' d'2 d'2 | %63
 [=fad']2 ([fa]2 [e_b]) z |[K:bass] (=F,E,F,E,F,E,) | (D,^C,D,C,D,E, | %66
 =F,) z[K:treble] !^!=F z !^!_A z | !^![d=fb] z !^![dfb] z !^![^ce_b]2 |[K:bass] (G,^F,G,F,G,F,) | %69
 (E,^D,E,D,E,F, | G,) z[K:treble] !^!G z !^!_B z | %71
[Q:1/4=75]"_rit." !^![eg^c'] z !^![^ce_b] z !^!!fermata![=c_ea]2 | %72
[Q:1/4=88]"_a tempo"{cd} (c3 B A2) |{/^D} (E3 F G2) | (C4 B,2) |{/B,} (C4 B,2) |{cd} (c3 B A2) | %77
{/^D} (E3 F G2) | (C4 B,2) |[Q:1/4=80]"^molto rit." B2 B2 !fermata!B2 | %80
!mp![Q:1/4=88]"^a tempo"{/c} (BE-) (EFGB) | (A3 B c2) |{/c} (BE-) (EFGB) | (A3 B c2) | %84
"_cresc."{/c} (B [EGe]2 [FAf] [GBg]2) |({/c} B [F^df]2 [Geg] [Afa]2) | %86
{/c} B[Bgb]- [Bgb][Geg][Ee][Ff] |!f! [^DB^d]2{/^A} !>!B2 !>!!fermata!B,2 | %88
!mp![Q:1/4=88]"^a tempo"{/c} (BE-) (EFGB) | (A3 B c2) |{/c} (BE-) (EFGB) | (A3 B c2) | %92
"_cresc."{/c} (B [EGe]2 [FAf] [GBg]2) |({/c} B [F^df]2 [Geg] [Afa]2) | %94
{/c} B[Bgb]- [Bgb][cc'][Aa][Ff] |!f! [_E_e]2 EDDD | ^C =E2 G _B2 | (_BABA B2) | %98
 !^![G_B^cg]4 !^![GBcg]2 | !^![G_Be]2 ^C2 C2 | D =F2 _A =B2 | (B^ABA B2) | %102
 !^![_ABd_a]4 !^![ABda]2 | !^![_AB=f]2 D2 D2 |!p! (de)(ed) d2 | (de)(ed) d2 | (e=f)(fe) e2 | %107
 (e=f)(fe) e2 |!mf! (b a2 g c2) | (b a2 g B2) | %110
[Q:1/4=80]"_poco  rit." !tenuto![GBd]2 !tenuto![G^A^c]2 !tenuto![G=A=c]2 | !tenuto![FAc]2 D2 D2 | %112
!f![Q:1/4=88]"^a tempo" ^C E2 G _B2 | (_BABA B2) | !^![G_B^cg]4 !^![GBcg]2 | !^![G_Be]2 ^C2 C2 | %116
 D =F2 _A =B2 | (B^ABA B2) | !^![_ABd_a]4 !^![ABda]2 | !^![_AB=f]2 [D=FB]2 [DFB]2 | %120
[K:bass] (=F,E,F,E,F,E,) | (D,^C,D,C,D,E, | =F,) z[K:treble] !^!=F z !^!_A z | %123
 !^![d=fb] z !^![dfb] z !^![^ce_b]2 |[K:bass] (G,^F,G,F,G,F,) | (E,^D,E,D,E,F, | %126
 G,) z[K:treble] !^!G z !^!_B z | !^![eg^c'] z !^![egc'] z !^![^d^f=c']2 | %128
[K:bass] z [E,C]2 [D,B,] [C,A,]2 | z [C,A,]2 [D,B,] [E,C]2 | z [F,CE]2 [F,CE] [F,CD]2 | %131
 z [G,B,E]2 [G,B,E] [G,B,D]2 |[K:treble] e'e' e'2 _e'2 | [fa_e']2 [fad']4 | d'd' d'2 d'2 | %135
 [=fad']2 ([fa]2 [e_b]) z |[K:bass] (=F,E,F,E,F,E,) | (D,^C,D,C,D,E, | %138
 =F,) z[K:treble] !^!=F z !^!_A z | !^![d=fb] z !^![dfb] z !^![^ce_b]2 |[K:bass] (G,^F,G,F,G,F,) | %141
 (E,^D,E,D,E,F, | G,) z[K:treble] !^!G z !^!_B z | %143
[Q:1/4=80]"_rit." !^![eg^c'] z !^![^ce_b] z !^!!fermata![=c_ea]2 | %144
[Q:1/4=88]"_a tempo"!p! (c'3 a f2) | =ffee _e2 | (c3 A F2) | =FFEE _E2 | %148
"_r.h."[I:staff +1] (C3 A, F,2) |!<(! =F,F,E,E, E,2!<)! |[I:staff -1] z2 F,B,^DF | %151
[Q:1/4=80]"^molto rit." B2 B2 !fermata!B2 |!mp![Q:1/4=88]"^a tempo"{/c} (BE-) (EFGB) | (A3 B c2) | %154
{/c} (BE-) (EFGB) | (A3 B c2) |"_cresc."{/c} (B [EGe]2 [FAf] [GBg]2) | %157
({/c} B [F^df]2 [Geg] [Afa]2) |{/c} B[Bgb]- [Bgb]([Geg][Ee][Ff]) | %159
!f! [^DB^d]2{/^A} !>!B2 !>!!fermata!B,2 |!mp![Q:1/4=88]"^a tempo"{/c} (BE-) (EFGB) | (A3 B c2) | %162
{/c} (BE-) (EFGB) | (A3 B c2) |"_cresc."{/c} (B [EGe]2 [FAf] [GBg]2) | %165
({/c} B [F^df]2 [Geg] [Afa]2) |!ff!{/c} (B[Bb][_B_b][Aa][_A_a][Gg]) | %167
 ([Ff][Ee][^D^d][Ee][^E^e][Ff]) | [Gg]3 [Gg] [Gg]2 | [Gg]3 [Gg] [Gg]2 | [_B_eg]2 [_Ad]4 | %171
 [G_e]2 (_Be=f^f) | [Gg]3 [Gg] [Gg]2 | [Gg]3 [Gg] [Gg]2 | [=B=eg]2 [A^d]4 | %175
 [GBe]2 [EGBe]2 [EGBe]2 | [^DFc^d]2 [DFcd]2 [DFAd]2 | [EGe]2 z2 z2 | [FAB^d]2 z2 z2 | %179
 [EGBe]2{/f} g2 b2 | [egbe']2 z2 z2 | !fermata![G,B,E]6 |] %182
V:2
 (B,,^A,,B,,A,,B,,A,,) | (B,,^A,,B,,A,,B,,A,,) | (B,,C,^C,D,^D,E,) | (^E,F,G,^G,A,^A,) | %4
 (B,_B,A,_A,G,F,) | (=F,E,_E,D,_D,C,) | (B,,^A,,B,,A,, B,,2) | [B,,F,A,]4- !fermata![B,,F,A,]2 || %8
 E,6- | (E,4 ^D,2) | E,6- | (E,4 ^D,2) | E,2 B,,2- B,,B,, | ^D,2 B,,2- B,,B,, | [E,G,B,]4 [C,F,]2 | %15
 [B,,F,]2{/^A,} !>!B,2 !>!!fermata!B,,2 | E,6- | (E,4 ^D,2) | E,6- | (E,4 ^D,2) | %20
 E,2 B,,2- B,,B,, | ^D,2 B,,2- B,,B,, | [E,G,B,]2- [E,G,B,][C,C][A,,A,][F,,F,] | %23
 [_E,,_E,]2 .E,.D,.D,.D, | ^C, =E,2 G, _B,2 | (^C^B,CB, C2) | (!^!E^C_B,G, E,2) | !^!^C,2 C,2 C,2 | %28
 D, =F,2 _A, =B,2 | (D^CDC D2) | (!^!=FDB,_A, =F,2) | !^!D,2 D,2 D,2 | z2 A,2 [CD]2 | %33
 z2 G,2 [B,D]2 | z2 B,2 [DE]2 | z2 A,2 [CE]2 | z2 G,2 [C_E]2 | z2 G,2 [B,D]2 | %38
 !tenuto!=F,2 !tenuto!E,2 !tenuto!_E,2 | !tenuto!D,2 D,2 D,2 | ^C, E,2 G, _B,2 | (^C^B,CB, C2) | %42
 (!^!E^C_B,G, E,2) | !^!^C,2 C,2 C,2 | D, =F,2 _A, =B,2 | (D^CDC D2) | (!^!=FDB,_A, =F,2) | %47
 !^!D,2 _A,,2 A,,2 | (=F,,E,,F,,E,,F,,E,,) | (D,,^C,,D,,C,,D,,E,, | =F,,) z !^!_A, z !^!B, z | %51
[K:treble] !^!_A z !^!A z !^!G2 |[K:bass] (G,,^F,,G,,F,,G,,F,,) | (E,,^D,,E,,D,,E,,F,, | %54
 G,,) z !^!_B, z !^!^C z |[K:treble] !^!_B z !^!B z !^!A2 |[K:bass] [A,,,A,,]6 | [A,,,A,,]6 | %58
 [A,,,A,,]6 | [G,,,G,,]6 |[K:treble] (^c4 =c2) | c2 c4 | B4 B2 | c2 c4 | %64
[K:bass] (=F,,E,,F,,E,,F,,E,,) | (D,,^C,,D,,C,,D,,E,, | =F,,) z !^!_A, z !^!B, z | %67
[K:treble] !^!_A z !^!A z !^!G2 |[K:bass] (G,,^F,,G,,F,,G,,F,,) | (E,,^D,,E,,D,,E,,F,, | %70
 G,,) z !^!_B, z !^!^C z |[K:treble] !^!_B z !^!G z !^!!fermata!^F2 |[K:bass]{CD} (C3 B, A,2) | %73
{/^D,} (E,3 F, G,2) | (C,4 B,,2) |{/B,,} (C,4 B,,2) |{CD} (C3 B, A,2) |{/^D,} (E,3 F, G,2) | %78
 (C,4 B,,2) | [B,,F,A,]4- !fermata![B,,F,A,]2 | E,6- | (E,4 ^D,2) | E,6- | (E,4 ^D,2) | %84
 E,2 B,,2- B,,B,, | ^D,2 B,,2- B,,B,, | [E,G,B,]4 [C,F,]2 | %87
 [B,,F,]2{/^A,} !>!B,2 !>!!fermata!B,,2 | E,6- | (E,4 ^D,2) | E,6- | (E,4 ^D,2) | %92
 E,2 B,,2- B,,B,, | ^D,2 B,,2- B,,B,, | [E,G,B,]2- [E,G,B,][C,C][A,,A,][F,,F,] | %95
 [_E,,_E,]2 E,D,D,D, | ^C, =E,2 G, _B,2 | (^C^B,CB, C2) | (!^!E^C_B,G, E,2) | !^!^C,2 C,2 C,2 | %100
 D, =F,2 _A, =B,2 | (D^CDC D2) | (!^!=FDB,_A, =F,2) | !^!D,2 D,2 D,2 | z2 (A,2 [CD]2) | %105
 z2 (G,2 [B,D]2) | z2 (B,2 [DE]2) | z2 A,2 [CE]2 | z2 G,2 [C_E]2 | z2 G,2 [B,D]2 | %110
 !tenuto!=F,2 !tenuto!E,2 !tenuto!_E,2 | !tenuto!D,2 D,2 D,2 | ^C, E,2 G, _B,2 | (^C^B,CB, C2) | %114
 (!^!E^C_B,G, E,2) | !^!^C,2 C,2 C,2 | D, =F,2 _A, =B,2 | (D^CDC D2) | (!^!=FDB,_A, =F,2) | %119
 !^!D,2 _A,,2 A,,2 | (=F,,E,,F,,E,,F,,E,,) | (D,,^C,,D,,C,,D,,E,, | =F,,) z !^!_A, z !^!B, z | %123
[K:treble] !^!_A z !^!A z !^!G2 |[K:bass] (G,,^F,,G,,F,,G,,F,,) | (E,,^D,,E,,D,,E,,F,, | %126
 G,,) z !^!_B, z !^!^C z |[K:treble] !^!_B z !^!B z !^!A2 |[K:bass] [A,,,A,,]6 | [A,,,A,,]6 | %130
 [A,,,A,,]6 | [G,,,G,,]6 |[K:treble] ^c4 =c2 | c2 c4 | B4 B2 | c2 c4 | %136
[K:bass] (=F,,E,,F,,E,,F,,E,,) | (D,,^C,,D,,C,,D,,E,, | =F,,) z !^!_A, z !^!B, z | %139
[K:treble] !^!_A z !^!A z !^!G2 |[K:bass] (G,,^F,,G,,F,,G,,F,,) | (E,,^D,,E,,D,,E,,F,, | %142
 G,,) z !^!_B, z !^!^C z |[K:treble] !^!_B z !^!G z !^!!fermata!^F2 | (A3 c ^d2) | =dd^cc =c2 | %146
[K:bass] (A,3 C ^D2) | =DD^CC =C2 |"_l.h." (A,,3 C, ^D,2) | =D,D,^C,C, =C,2 |"^l.h." [B,,^D,]6 | %151
 [B,,F,A,]4- !fermata![B,,F,A,]2 | E,6- | (E,4 ^D,2) | E,6- | (E,4 ^D,2) | E,2 B,,2- B,,B,, | %157
 ^D,2 B,,2- B,,B,, | [E,G,B,]4 [C,F,]2 | [B,,F,]2{/^A,} !>!B,2 !>!!fermata!B,,2 | E,6- | %161
 (E,4 ^D,2) | E,6- | (E,4 ^D,2) | E,2 B,,2- B,,B,, | ^D,2 B,,2- B,,B,, | [E,G,B,]2 z2 z2 | z6 | %168
 z6 | z6 | [_B,,_B,]2 [B,,B,]4 | [_E,_B,]2 z2 z2 | z6 | z6 | [=B,,=B,]2 [B,,B,]4 | %175
 [B,,B,][E,,E,]- [E,,E,][F,,F,][G,,G,][B,,B,] | [A,,A,]3 [B,,B,] [C,C]2 | [B,,B,]2 z2 z2 | %178
 [B,,B,]2 z2 z2 | [E,,E,]2[K:treble]{/F} G2 B2 | [EGB]2 z2 z2 |[K:bass] !fermata![E,,E,]6 |] %182
V:3
 x6 | x6 | x6 | x6 | x6 | x6 | x6 | [B,^D]4- !fermata![B,D]2 || GE- E2- E2 | (EF E2 F2) | %10
 GE- E2- E2 | (EF E2 F2) | x6 | x6 | x4 ^A2 | x6 | GE- E2- E2 | (EF E2 F2) | GE- E2- E2 | %19
 (EF E2 F2) | x6 | x6 | x6 | x6 | x6 | x6 | x6 | x6 | x6 | x6 | x6 | x6 | (([^Fc]6 | [GB]6)) | %34
 (([^Gd]6 | [Ac]6)) | ([c_e]4 G2) | ([Bd]4 G2) | x6 | x6 | x6 | x6 | x6 | x6 | x6 | x6 | x6 | x6 | %48
[K:bass] x6 | x6 | x2[K:treble] x4 | x6 |[K:bass] x6 | x6 | x2[K:treble] x4 | x6 |[K:bass] x6 | %57
 x6 | x6 | x6 |[K:treble] [g^a]4 [g=a]2 | x6 | g4 [=f^g]2 | x2 c'4 |[K:bass] x6 | x6 | %66
 x2[K:treble] x4 | x6 |[K:bass] x6 | x6 | x2[K:treble] x4 | x6 | x6 | x6 | x6 | x6 | x6 | x6 | x6 | %79
 [B,^D]4- !fermata![B,D]2 | GE- E2- E2 | (EF E2 F2) | GE- E2- E2 | (EF E2 F2) | x6 | x6 | x4 ^A2 | %87
 x6 | GE- E2- E2 | (EF E2 F2) | GE- E2- E2 | (EF E2 F2) | x6 | x6 | x6 | x6 | x6 | x6 | x6 | x6 | %100
 x6 | x6 | x6 | x6 | (([^Fc]6 | [GB]6)) | (([^Gd]6 | [Ac]6)) | ([c_e]4 G2) | ([Bd]4 G2) | x6 | x6 | %112
 x6 | x6 | x6 | x6 | x6 | x6 | x6 | x6 |[K:bass] x6 | x6 | x2[K:treble] x4 | x6 |[K:bass] x6 | x6 | %126
 x2[K:treble] x4 | x6 |[K:bass] x6 | x6 | x6 | x6 |[K:treble] [g^a]4 [g=a]2 | x6 | g4 [=f^g]2 | %135
 x2 c'4 |[K:bass] x6 | x6 | x2[K:treble] x4 | x6 |[K:bass] x6 | x6 | x2[K:treble] x4 | x6 | x6 | %145
 x6 | x6 | x6 | x6 | x6 | x6 | [B,^D]4- !fermata![B,D]2 | GE- E2- E2 | (EF E2 F2) | GE- E2- E2 | %155
 (EF E2 F2) | x6 | x6 | x4 ^A2 | x6 | GE- E2- E2 | (EF E2 F2) | GE- E2- E2 | (EF E2 F2) | x6 | x6 | %166
 x6 | x6 | x6 | x6 | x2 (g3 =f) | x6 | x6 | x6 | x2 (g3 ^f) | x6 | x6 | x6 | x6 | x6 | x6 | x6 |] %182
V:4
 x6 | x6 | x6 | x6 | x6 | x6 | x6 | x6 || (G,2 A,2 B,2) | (C4 A,2) | (G,2 A,2 B,2) | (C4 A,2) | %12
 G,6 | [A,B,]6 | x6 | x6 | (G,2 A,2 B,2) | (C4 A,2) | (G,2 A,2 B,2) | (C4 A,2) | (G,6 | [A,B,]6) | %22
 x6 | x6 | x6 | x6 | x6 | x6 | x6 | x6 | x6 | x6 | D,6 | D,4 =F,2 | E,6 | E,6 | (C,6 | D,6) | x6 | %39
 x6 | x6 | x6 | x6 | x6 | x6 | x6 | x6 | x6 | x6 | x6 | x6 |[K:treble] x6 |[K:bass] x6 | x6 | x6 | %55
[K:treble] x6 |[K:bass] x6 | x6 | x6 | x6 |[K:treble] x6 | x6 | x6 | x6 |[K:bass] x6 | x6 | x6 | %67
[K:treble] x6 |[K:bass] x6 | x6 | x6 |[K:treble] x6 |[K:bass] x6 | x6 | x6 | x6 | x6 | x6 | x6 | %79
 x6 | (G,2 A,2 B,2) | (C4 A,2) | (G,2 A,2 B,2) | (C4 A,2) | G,6 | [A,B,]6 | x6 | x6 | %88
 (G,2 A,2 B,2) | (C4 A,2) | (G,2 A,2 B,2) | (C4 A,2) | G,6 | [A,B,]6 | x6 | x6 | x6 | x6 | x6 | %99
 x6 | x6 | x6 | x6 | x6 | D,6 | D,4 =F,2 | E,6 | E,6 | C,6 | D,6 | x6 | x6 | x6 | x6 | x6 | x6 | %116
 x6 | x6 | x6 | x6 | x6 | x6 | x6 |[K:treble] x6 |[K:bass] x6 | x6 | x6 |[K:treble] x6 | %128
[K:bass] x6 | x6 | x6 | x6 |[K:treble] x6 | x6 | x6 | x6 |[K:bass] x6 | x6 | x6 |[K:treble] x6 | %140
[K:bass] x6 | x6 | x6 |[K:treble] x6 | x6 | x6 |[K:bass] x6 | x6 | x6 | x6 | x6 | x6 | %152
 (G,2 A,2 B,2) | (C4 A,2) | (G,2 A,2 B,2) | (C4 A,2) | G,6 | [A,B,]6 | x6 | x6 | (G,2 A,2 B,2) | %161
 (C4 A,2) | (G,2 A,2 B,2) | (C4 A,2) | G,6 | [A,B,]6 | x6 | x6 | x6 | x6 | x6 | x6 | x6 | x6 | x6 | %175
 x6 | x6 | x6 | x6 | x2[K:treble] x4 | x6 |[K:bass] x6 |] %182

